img/svg/placeholder-skill.svg

<svg width="512" height="512" viewBox="0 0 512 512" fill="none" xmlns="http://www.w3.org/2000/svg">
<path d="M102.5 26.0298L192.53 371.78L481.75 395.03L391.687 49.2798L102.5 26.0298ZM83.594 27.5938C53.128 39.4668 27.914 80.6918 33.844 102.906L37.094 114.686C37.761 112.926 38.454 111.164 39.187 109.406C49.097 85.6998 65.748 62.6398 89.564 50.4998L83.594 27.5938ZM94.438 69.1868C77.781 79.1988 64.518 97.2638 56.438 116.594C51.191 129.144 48.4 142.224 47.688 153.124L112.5 388.407C112.794 387.857 113.072 387.301 113.375 386.751C123.978 367.499 141.198 349.056 164.5 338.281L94.437 69.1898L94.438 69.1868ZM169.312 356.781C151.635 365.859 138.167 380.498 129.75 395.781C125.286 403.888 122.48 412.145 121.062 419.531L132.75 461.939L134.375 462.064C130.535 434.516 145.727 401.56 175.625 380.97L169.312 356.78V356.781ZM195.656 390.781C163.089 408.051 149.146 443.221 153.812 463.721L443.656 488.221C438.316 480.431 434.983 470.274 435.062 459.721L412.656 450.721L459 443.436L445.5 430.561C451.104 423.644 459.207 417.511 470.313 412.874L195.656 390.78V390.781Z" fill="#444856"/>
</svg>

<svg xmlns="http://www.w3.org/2000/svg" viewBox="0 0 512 512" style="height: 512px; width: 512px;"><g class="" transform="translate(0,0)" style=""><path d="m102.5 26.03 90.03 345.75 289.22 23.25-90.063-345.75L102.5 26.03zm-18.906 1.564c-30.466 11.873-55.68 53.098-49.75 75.312l3.25 11.78c.667-1.76 1.36-3.522 2.093-5.28C49.097 85.7 65.748 62.64 89.564 50.5l-5.97-22.906zm10.844 41.593c-16.657 10.012-29.92 28.077-38 47.407-5.247 12.55-8.038 25.63-8.75 36.53L112.5 388.407c.294-.55.572-1.106.875-1.656 10.603-19.252 27.823-37.695 51.125-48.47L94.437 69.19zm74.874 287.594c-17.677 9.078-31.145 23.717-39.562 39-4.464 8.107-7.27 16.364-8.688 23.75l11.688 42.408 1.625.125c-3.84-27.548 11.352-60.504 41.25-81.094l-6.313-24.19zm26.344 34c-32.567 17.27-46.51 52.44-41.844 72.94l289.844 24.5c-5.34-7.79-8.673-17.947-8.594-28.5l-22.406-9L459 443.436l-13.5-12.875c5.604-6.917 13.707-13.05 24.813-17.687L195.656 390.78z" fill="#fff" fill-opacity="1"></path></g></svg>
